!!!!SEGMENT: pl-kk--kk-i-636--003-012_anonim--in-sabbato-sancto-responsorium-9num.krn
!!!cenid: 18xx:4558
!!!COM: Anonim
!!!COM-rismID: pe30004985
!!!CDT:
!!!CNT:
!!!OPR: In Sabbato Sancto
!!!OTL: Responsorium 9num
!!!OMV: 012
!!!PDT:
!!!AGN: Sacred
!!!YEC: Copyright 2022 Narodowy Instytut Fryderyka Chopina (https://polishscores.org)
!!!YEM: License CC-BY-4.0 (https://creativecommons.org/licenses/by/4.0)
!!!SMS-siglum: PL-Kk
!!!SMS-shelfmark: Kk.I.636
!!!SMS-variant:
!!!SMS-altvar:
!!!SMS-shelfwork: 003-012 M
!!!NIFC-rismSourceID: 1001216440
!!!NIFC-rismChildID: 1001217619
!!!NIFC-islandoraID: pl-kk:40786
!!!URL-pdf-islandora: https://repozytorium.nifc.pl/islandora/object/pl-kk%3A40786/datastream/PDF/view
!!!URL-scan: https://polish.musicsources.pl/pl/lokalizacje/galeria/rekopisy/7271/1 @EN{Scan on Polish Music Sources Website} @PL{Skany w portalu Dziedzictwo Muzyki Polskiej w otwartym dostępie}
!!!IIIF:
!!!ONB-nifc: UWAGA: Lamentacje i Responsoria In Sabbato Sancto na skanach: S – 15-20, A – 37-42, T – 60-66, B - 86-92. Każda Lamentacja i Responsorium to oddzielne pliki.
!!!AIN: 1 alto 1 bass 1 soprn 1 tenor
!!!key:
**kern	**text	**kern	**text	**kern	**text	**kern	**text
*part4	*part4	*part3	*part3	*part2	*part2	*part1	*part1
*staff4	*staff4	*staff3	*staff3	*staff2	*staff2	*staff1	*staff1
*I"Basso.	*	*I"Tenore	*	*I"Alto.	*	*I"Soprano.	*
*I'B	*	*I'T.	*	*I'A	*	*I'S	*
*Ibass	*	*Itenor	*	*Ialto	*	*Isoprn	*
*ICvox	*	*ICvox	*	*ICvox	*	*ICvox	*
*clefF4	*	*clefC4	*	*clefC3	*	*clefC1	*
*k[b-e-a-d-]	*	*k[b-e-a-d-]	*	*k[b-e-a-d-]	*	*k[b-e-a-d-]	*
*A-:	*	*A-:	*	*A-:	*	*A-:	*
*M4/4	*	*M4/4	*	*M4/4	*	*M4/4	*
*met(c)	*	*met(c)	*	*met(c)	*	*met(c)	*
=1	=1	=1	=1	=1	=1	=1	=1
1F	Se-	1A-	Se-	1c	Se-	1a-	Se-
=2	=2	=2	=2	=2	=2	=2	=2
1En	-pul-	1B-	-pul-	1d-	-pul-	1g	-pul-
!LO:LB:g=original	!	!LO:LB:g=original	!	!	!	!LO:LB:g=original	!
=3	=3	=3	=3	=3	=3	=3	=3
1E-X	-to	1c	-to	1c	-to	1an	-to
!	!	!	!	!LO:LB:g=original	!	!	!
=4	=4	=4	=4	=4	=4	=4	=4
1Dn	Do-	1B-	Do-	1f	Do-	1b-	Do-
=5	=5	=5	=5	=5	=5	=5	=5
*2\right	*	*2\right	*	*2\right	*	*2\right	*
2.D-\	.	2.A-\	.	2.f\	.	2.bn\	.
4D-\	-mi-	8G/L	-mi-	4f\	-mi-	4b\	-mi-
.	.	8F/J	.	.	.	.	.
=6	=6	=6	=6	=6	=6	=6	=6
1C	-no,	1G	-no,	1en	-no,	1cc	-no,
=7	=7	=7	=7	=7	=7	=7	=7
2C/	.	2G/	.	2en\	.	2cc\	.
4r;	.	4r;	.	4r;	.	4r;	.
4C/	si-	4c\	si-	4e\	si-	4g\	si-
=8	=8	=8	=8	=8	=8	=8	=8
2F\	-gna-	2c\	-gna-	2f\	-gna-	2a-\	-gna-
2E-\	-tum	2e-\	-tum	2g\	-tum	2b-\	-tum
!LO:LB:g=original	!	!LO:LB:g=original	!	!	!	!LO:LB:g=original	!
=9	=9	=9	=9	=9	=9	=9	=9
1A-	est	1e-	est	1a-	est	1cc	est
!	!	!	!	!LO:LB:g=original	!	!	!
=10	=10	=10	=10	=10	=10	=10	=10
2D-\	mo-	2f\	mo-	2a-\	mo-	2dd-\	mo-
2AA-/	-nu-	2e-\	-nu-	2a-\	-nun-	2cc\	-nu-
=11	=11	=11	=11	=11	=11	=11	=11
1E-	-men-	1e-	-men-	1g	-men-	1b-	-men-
=12	=12	=12	=12	=12	=12	=12	=12
2BB-/	-tum,	2dn\	-tum	2f\	-tum,	2b-\	-tum,
4r;	.	4r	.	4r;	.	4r;	.
4B-\	vol-	4d\	vol-	4f\	vol-	4g\	vol-
=13	=13	=13	=13	=13	=13	=13	=13
2B-\	-ven-	2dn\	-ven-	2f\	-ven-	2b-\	-ven-
2G\	-tes	2d-X\	-tes	2e-\	-tes	2b-\	-tes
!	!	!LO:LB:g=original	!	!	!	!LO:LB:g=original	!
=14	=14	=14	=14	=14	=14	=14	=14
2.A-\	la-	2.c\	la-	2.e-\	la-	2.a-\	la-
4A-\	-pi-	4c\	-pi-	4e-\	-pi-	4a-\	-pi-
!LO:LB:g=original	!	!	!	!	!	!	!
=15	=15	=15	=15	=15	=15	=15	=15
2E-\	-dem	2B-\	-dem	2e-\	-dem,	2g\	-dem
2E-\	ad	2e-\	ad	2g\	ad	2b-\	ad
!	!	!	!	!LO:LB:g=original	!	!	!
=16	=16	=16	=16	=16	=16	=16	=16
2.B-\	os-	2.dn\	os-	2.f\	o-	2.b-\	o-
4B-\	-ti-	4d\	-ti-	4f\	-sti-	4b-\	-sti-
=17	=17	=17	=17	=17	=17	=17	=17
1F	-um	1c	-um	1f	-um	1a-	-um
=18	=18	=18	=18	=18	=18	=18	=18
2A-\	mo-	2c\	mo-	2e-\	mo-	2cc\	mo-
2E-\	-nu-	2e-\	-nu-	2g\	-nu-	4b-\	.
.	.	.	.	.	.	4ee-\	-nu-
!	!	!LO:LB:g=original	!	!	!	!LO:PB:g=original	!
=19	=19	=19	=19	=19	=19	=19	=19
1F	-men-	4c\	-men-	1a-	-men-	4ee-\	-men-
.	.	4F/	.	.	.	8ddn\L	.
.	.	.	.	.	.	8cc\J	.
.	.	2A-\	.	.	.	2dd\	.
=20	=20	=20	=20	=20	=20	=20	=20
2E-\	-ti,	2B-\	-ti,	2g\	-ti,	2ee-\	-ti,
4r;	.	4r;	.	4r;	.	4r;	.
4E-\	po-	4G/	po-	4c\	po-	4b-\	po-
!LO:LB:g=original	!	!	!	!	!	!	!
=21	=21	=21	=21	=21	=21	=21	=21
2A-\	-nen-	2c\	-nen-	2e-\	-nen-	2cc\	-nen-
2G\	-tes	2c\	-tes	2en\	-tes	2b-\	-tes
!	!	!	!	!LO:LB:g=original	!	!	!
=22	=22	=22	=22	=22	=22	=22	=22
2.F\	mi-	2.c\	mi-	2.f\	mi-	2.a-\	mi-
4F\	-li-	4c\	-li-	4f\	-li-	4a-\	-li-
!	!	!LO:PB:g=original	!	!	!	!	!
=23	=23	=23	=23	=23	=23	=23	=23
2C/	-tes,	2c\	-tes	2en\	-tes,	2g\	-tes
2E-X\	qui	2c\	qui	2f\	qui	2an\	qui
!	!	!	!	!	!	!LO:LB:g=original	!
=24	=24	=24	=24	=24	=24	=24	=24
2D-\	cus-	2d-\	cus-	2f\	cu-	2b-\	cus-
2AAn/	-to-	2e-\	-to-	2f\	-sto-	2cc\	-to-
=25	=25	=25	=25	=25	=25	=25	=25
2BB-/	-di-	2d-\	-di-	2f\	-di-	2b-\	-di-
2E-\	-rent	2c\	-rent	2f\	-rent	2an\	-rent
!LO:LB:g=original	!	!	!	!	!	!	!
=26	=26	=26	=26	=26	=26	=26	=26
1B-	il-	1d-	il-	1f	il-	1b-	il-
=27	=27	=27	=27	=27	=27	=27	=27
1F	.	4d-\	.	1f	.	4b-\	.
.	.	8c\L	.	.	.	8an\L	.
.	.	8B-\J	.	.	.	8g\J	.
.	.	2c\	.	.	.	2a\	.
!	!	!LO:LB:g=original	!	!	!	!	!
=28	=28	=28	=28	=28	=28	=28	=28
1F	-lum,	1c	-lum.	1f	-lum.	1an	-lum.
!	!	!	!	!LO:LB:g=original	!	!	!
=29||	=29||	=29||	=29||	=29||	=29||	=29||	=29||
!LO:TX:b:t=7.	!	!LO:TX:a:t=7.	!	!LO:TX:a:t=Solo.	!	!	!
00r	.	00r	.	2e-\	Ac-	4.a-\	Ac-
.	.	.	.	.	.	8b-\	.
.	.	.	.	2a-\	-ce-	2cc\	-ce-
!	!	!	!	!	!	!LO:LB:g=original	!
=30	=30	=30	=30	=30	=30	=30	=30
.	.	.	.	4a-\	-den-	4cc\	-den-
.	.	.	.	4g\	-tes	4b-\	-tes
.	.	.	.	2b-\	prin-	[2dd-\	prin-
=31	=31	=31	=31	=31	=31	=31	=31
.	.	.	.	4b-\	.	4dd-\]	.
.	.	.	.	8a-\	-ci-	8cc\	-ci-
.	.	.	.	8g\	-pes	8b-\	-pes
.	.	.	.	4a-\	sa-	4cc\	ſa-
.	.	.	.	4a-\	-cer-	4ff\	-cer-
=32	=32	=32	=32	=32	=32	=32	=32
.	.	.	.	4a-\	-do-	8.ddn\L	-do-
.	.	.	.	.	.	16cc\Jk	.
.	.	.	.	8g\L	-rum	4b-\	-tum
.	.	.	.	8f\J	.	.	.
.	.	.	.	[2g\	ad,	2r	.
!	!	!	!	!LO:LB:g=original	!	!	!
=33	=33	=33	=33	=33	=33	=33	=33
0r	.	0r	.	4g\]	.	2.cc\	ad
.	.	.	.	8f\L	.	.	.
.	.	.	.	8e-\J	.	.	.
.	.	.	.	4f\	.	.	.
.	.	.	.	4e-\	Pi-	4a-\	Pi-
!	!	!	!	!	!	!LO:LB:g=original	!
=34	=34	=34	=34	=34	=34	=34	=34
.	.	.	.	4dn\	-la-	2b-\	-la-
.	.	.	.	4B-\	.	.	.
.	.	.	.	[2e-\	.	8b-\L	.
.	.	.	.	.	.	8ee-\	.
.	.	.	.	.	.	8b-\	.
.	.	.	.	.	.	8g\J	.
=35	=35	=35	=35	=35	=35	=35	=35
1r	.	1r	.	4e-\]	.	1a-	.
.	.	.	.	8dn\L	.	.	.
.	.	.	.	8c\J	.	.	.
.	.	.	.	2d\	.	.	.
=36	=36	=36	=36	=36	=36	=36	=36
4.E-\	Ac-	2B-\	Ac-	2e-\	-tum,	2g\	-tum,
8F\	.	.	.	.	.	.	.
2G\	-ce-	2e-\	-ce-	2r	.	2r	.
=37	=37	=37	=37	=37	=37	=37	=37
!	!	!	!	!LO:TX:a:t=4.	!	!LO:TX:a:t=4.	!
4G\	-den-	4e-\	-den-	00r	.	00r	.
4F\	-tes	4dn\	-tes	.	.	.	.
[2A-\	Prin-	2f\	prin-	.	.	.	.
!LO:LB:g=original	!	!	!	!	!	!	!
=38	=38	=38	=38	=38	=38	=38	=38
4A-\]	.	4f\	.	.	.	.	.
8G\	-ci-	8e-\	-ci-	.	.	.	.
8F\	-pes	8dn\	-pes	.	.	.	.
!	!	!LO:LB:g=original	!	!	!	!	!
8.G\L	ſa-	8.e-\L	ſa-	.	.	.	.
16B-\Jk	.	16g\Jk	.	.	.	.	.
8A-\L	-cer-	8f\L	-cer-	.	.	.	.
8G\J	.	8e-\J	.	.	.	.	.
=39	=39	=39	=39	=39	=39	=39	=39
4F\	-do-	8.dn\L	-do-	.	.	.	.
.	.	16c\Jk	.	.	.	.	.
4BB-/	-tum	4B-\	-tum	.	.	.	.
4r	.	2c\	di	.	.	.	.
[4F\	ad	.	.	.	.	.	.
=40	=40	=40	=40	=40	=40	=40	=40
4F\]	.	4.B-\	Pi-	.	.	.	.
4E-\	P-	.	.	.	.	.	.
.	.	8c\	.	.	.	.	.
.	.	8qqB-/	.	.	.	.	.
8.Dn/L	-la-	2A-\	-la-	.	.	.	.
16C/Jk	.	.	.	.	.	.	.
4D\	.	.	.	.	.	.	.
!	!	!	!	!LO:LB:g=original	!	!	!
=41	=41	=41	=41	=41	=41	=41	=41
2E-\	-tum	2G/	-tum,	4r	.	4r	.
.	.	.	.	2g\	pe-	2b-\	pe-
2r	.	2r	.	.	.	.	.
.	.	.	.	8.f\L	-ti-	8.a-\L	-ti-
.	.	.	.	16e-\Jk	.	16g\Jk	.
!LO:LB:g=original	!	!LO:LB:g=original	!	!	!	!LO:LB:g=original	!
=42	=42	=42	=42	=42	=42	=42	=42
!LO:TX:a:t=1	!	!LO:TX:a:t=1	!	!	!	!	!
1r	.	1r	.	2f\	-e-	2a-\	-e-
.	.	.	.	8f\L	.	8a-\L	.
.	.	.	.	8e-\J	.	8g\J	.
.	.	.	.	8qg/	.	8qb-/	.
.	.	.	.	8f\L	.	8a-\L	.
.	.	.	.	16e-\L	.	16g\L	.
.	.	.	.	16dn\JJ	.	16f\JJ	.
=43	=43	=43	=43	=43	=43	=43	=43
4r	.	4r	.	4e-\	.	8.g/L	.
.	.	.	.	.	.	16f/Jk	.
2G\	pe-	2B-\	pe-	4B-/	-runt	4e-/	-runt.
.	.	.	.	2r	.	2r	.
4A-\	-ti-	4c\	-ti-	.	.	.	.
=44	=44	=44	=44	=44	=44	=44	=44
!	!	!	!	!LO:TX:a:t=3	!	!LO:TX:a:t=2	!
2B-\	-e-	2d-\	-e-	0r	.	0r	.
8A-\L	.	8d-\L	.	.	.	.	.
8G\J	.	8c\J	.	.	.	.	.
8qc/	.	8qe-/	.	.	.	.	.
8B-\L	.	8d-\L	.	.	.	.	.
16A-\L	.	16c\L	.	.	.	.	.
16G\JJ	.	16B-\JJ	.	.	.	.	.
=45	=45	=45	=45	=45	=45	=45	=45
4A-\	.	8.c\L	.	.	.	.	.
.	.	16B-\Jk	.	.	.	.	.
4AA-/	-runt,	4A-\	-runt,	.	.	.	.
2r	.	4c\	pe-	.	.	.	.
.	.	4e-\	-ti-	.	.	.	.
!	!	!LO:LB:g=original	!	!	!	!	!
=46	=46	=46	=46	=46	=46	=46	=46
2r	.	2f\	-e-	1r	.	4f/	pe-
.	.	.	.	.	.	4a-\	-ti-
4G\	pe-	8f\L	.	.	.	2b-\	-e-
.	.	8e-\J	.	.	.	.	.
4B-\	-ri-	8d-\L	.	.	.	.	.
.	.	16e-\L	.	.	.	.	.
.	.	16f\JJ	.	.	.	.	.
!LO:LB:g=original	!	!	!	!	!	!LO:LB:g=original	!
=47	=47	=47	=47	=47	=47	=47	=47
2c\	-e-	2e-\	.	4c\	pe-	8b-\L	.
.	.	.	.	.	.	8a-\J	.
.	.	.	.	4e-\	-ti-	8g\L	.
.	.	.	.	.	.	16a-\L	.
.	.	.	.	.	.	16b-\JJ	.
8c\L	.	8e-\L	.	2f\	-e-	[2a-\	.
8B-\J	.	8d-\J	.	.	.	.	.
8A-\L	.	8c\L	.	.	.	.	.
16B-\L	.	16d-\L	.	.	.	.	.
16c\JJ	.	16e-\JJ	.	.	.	.	.
!	!	!	!	!LO:LB:g=original	!	!	!
=48	=48	=48	=48	=48	=48	=48	=48
2B-\	.	2d-\	.	8f\L	.	8a-\L]	.
.	.	.	.	8e-\J	.	8g\J	.
.	.	.	.	8d-\L	.	8f\L	.
.	.	.	.	16e-\L	.	16g\L	.
.	.	.	.	16f\JJ	.	16a-\JJ	.
8B-\L	.	8d-\L	.	2e-\	.	8g/L	.
8A-\J	.	8c\J	.	.	.	8e-/J	.
8G\L	.	8B-\L	.	.	.	4b-\	.
16A-\L	.	16c\L	.	.	.	.	.
16B-\JJ	.	16d-\JJ	.	.	.	.	.
!	!	!LO:LB:g=original	!	!	!	!	!
=49	=49	=49	=49	=49	=49	=49	=49
4A-\	.	8.c\L	.	4e-\	.	4b-\	.
.	.	16B-\Jk	.	.	.	.	.
4AA-/	-runt,	4A-\	-runt	4A-/	-runt	4a-\	-runt,
2r	.	2e-\	pe-	2r	.	[2cc\	pe-
!	!	!	!	!	!	!LO:LB:g=original	!
=50	=50	=50	=50	=50	=50	=50	=50
2.D-\	pe-	4e-\	.	2.f\	pe-	4cc\]	.
.	.	8.d-\L	-ti-	.	.	8.b-\L	-ti-
.	.	16c\Jk	.	.	.	16a-\Jk	.
.	.	2d-\	-e-	.	.	[2b-\	-e-
4D-\	-ti-	.	.	4b-\	-ti-	.	.
!LO:LB:g=original	!	!	!	!	!	!	!
=51	=51	=51	=51	=51	=51	=51	=51
2E-\	-er-	4d-\	.	4g\	-e-	4b-\]	.
.	.	8.c\L	.	4f\	.	8.a-\L	.
.	.	16B-\Jk	.	.	.	16g\Jk	.
2A-\	-unt	4c\	.	4e-\	.	4a-\	.
.	.	4A-\	-runt	4f\	-runt	4f/	-runt
!	!	!	!	!LO:LB:g=original	!	!	!
=52	=52	=52	=52	=52	=52	=52	=52
1E-	il-	2c\	il-	2e-\	il-	2a-\	il-
.	.	2B-\	.	2e-\	.	2g\	.
!	!	!LO:LB:g=original	!	!	!	!	!
=53	=53	=53	=53	=53	=53	=53	=53
1AA-	-lum,	1A-	-lum,	1e-	-lum,	1a-	-lum,
!	!	!	!	!	!	!LO:LB:g=original	!
=54	=54	=54	=54	=54||	=54||	=54||	=54||
2F\	po-	2c\	po-	2f\	po-	2a-\	po-
4F\	-nen-	4c\	-nen-	4f\	-nen-	4a-\	-nen-
4F\	-tes	4c\	-tes	4f\	-tes	4a-\	-tes
=55	=55	=55	=55	=55	=55	=55	=55
2.A-\	mi-	2.c\	mi-	2.e-\	mi-	2.a-\	mi-
4A-\	-li-	4c\	-li-	4e-\	-li-	4a-\	-li-
=56	=56	=56	=56	=56	=56	=56	=56
2E-\	-tes,	2B-\	-tes	2e-\	-tes,	2g\	-tes
2C/	qui	2c\	qui	2en\	qui	2g\	qui
!LO:LB:g=original	!	!	!	!	!	!	!
=57	=57	=57	=57	=57	=57	=57	=57
2F\	cus-	2c\	cus-	2.f\	cus-	2a-\	cus-
2E-\	-to-	2c\	-to-	.	.	2an\	-to-
.	.	.	.	4f\	-to-	.	.
!	!	!LO:LB:g=original	!	!LO:LB:g=original	!	!	!
=58	=58	=58	=58	=58	=58	=58	=58
2D-\	-di-	2d-\	-di-	2f\	-di-	2b-\	-di-
2AAn/	-rent	2e-\	-rent	2f\	-rent	2cc\	-rent
!	!	!	!	!	!	!LO:LB:g=original	!
=59	=59	=59	=59	=59	=59	=59	=59
1BB-	il-	1d-	il-	1f	il-	[1b-	il-
=60	=60	=60	=60	=60	=60	=60	=60
1F	.	4d-\	.	1f	.	4b-\]	.
.	.	8c\L	.	.	.	8an\L	.
.	.	8B-\J	.	.	.	8g\J	.
.	.	2c\	.	.	.	2a\	.
=61	=61	=61	=61	=61	=61	=61	=61
!LO:TX:b:t=Seq Christus factus est.	!	!	!	!	!	!	!
1F	-lum.	1c	-lum.	1f	-lum.	1an	-lum.
==	==	==	==	==	==	==	==
*-	*-	*-	*-	*-	*-	*-	*-
!!!system-decoration: [(s1,s2,s3,s4)]
!!!ENC: Anastazja Marusiak
!!!END: 2023-11-21
!!!ENC: Leszek Kubiak
!!!END: 2024-10-10
